!!key: tele-40-5-Fan-All-2-Flute
!!!COM: Telemann, Georg Philipp
!!!CDT: 1681/03/14-1767/06/25
!!!CBL: Magdeburg
!!!CDL: Hamburg
!!!CNT: German
!!!TWV: 40:5
!!!TWV-genre: 40
!!!TWV-work: 5
!!!OPR: 12 Fantasias for transverse flute without bass
!!!OTL: Fantasia 4
!!!OMD: Allegro
!!!OMV: 2
!!!ODT: ca. 1732–1733
!!!AST: Late Baroque
!!!AGN: Fantasia
!!!AMT: Simple triple
!!!AIN: Transverse flute
**kern
*ICww
*Iflt
*clefG2
*k[b-e-]
*B-:
*M3/4
=1-
8b-
4ff
4gg
8b-
=2
16aLL
16cc
16a
16fJJ
16aLL
16cc
16a
16fJJ
16aLL
16cc
16a
16fJJ
=3
8b-
4ff
4gg
8b-
=4
16aLL
16cc
16a
16fJJ
8ccL
8fJ
8r
8e-
!!LO:LB:g=original
=5
8dL
8b-
8e-
8b-
8f
8b-J
=6
16gLL
16e-
16g
16b-JJ
8ee-L
8gJ
8fL
16gL
16fJJ
=7
8enL
8cc
8f
8cc
8g
8ccJ
=8
16aLL
16f
16a
16ccJJ
8ffL
8a
8b-
8ffJ
=9
8e-L
8gg
8d
8ff
8f
8aaJ
!!LO:LB:g=original
=10
8gL
8bb-
8f
8aa
8b-
8ggJ
=11
8a\L
8ff
8f
8ee-
8b-
8ddJ
=12
8e-L
8cc
8d
8b-
8f
8aJ
=13
8r
16b-LL
16aJJ
8b-L
8cc
8dd
8eenJ
=14
8f
4ccc
4ddd
8ff
!!LO:LB:g=original
=15
16eenLL
16gg
16ee
16ccJJ
16eeLL
16gg
16ee
16ccJJ
16eeLL
16gg
16ee
16ccJJ
=16
8ff
4ccc
4ddd
8ff
=17
16eenLL
16gg
16ee
16ccJJ
8ggL
8ccJ
8r
8b-
=18
8aL
8ff
8b-
8ff
8cc
8ffJ
=19
16ddLL
16b-
16dd
16ffJJ
8bb-L
8ddJ
8ccL
16ddL
16ccJJ
!!LO:LB:g=original
=20
8bnL
8gg
8cc
8gg
8dd
8ggJ
=21
16eenLL
16cc
16ee
16ggJJ
8cccL
8ee
8ff
8cccJ
=22
8b-L
8ddd
8a
8ccc
8cc
8aaJ
=23
8ddL
8bb-
8cc
8aa
8ff
8dddJ
=24
8eenL
8ccc
8cc
8bb-
8ff
8aaJ
!!LO:LB:g=original
=25
8b-L
8gg
8a
8ff
8cc
8eenJ
=26
8r
16ffLL
16eenJJ
8ffL
8dd
8ee-X
8ccJ
=27
16gLL
16a
16bn
16ccJJ
8ddL
8f
8e-
8ccJ
=28
8fL
8dd
8e-
8cc
8d
8bnJ
=29
8e-L
16ccL
16bnJJ
8ccL
8a
8b-X
8gJ
!!LO:LB:g=original
=30
16ddLL
16een
16ff#X
16ggJJ
8aaL
8cc
8b-
8ggJ
=31
8ccL
8aa
8b-
8gg
8a
8ff#XJ
=32
8b-L
16ggL
16ff#XJJ
8ggL
8een
(8ee
8ffn)J
=33
8r
16ee-XLL
16ddJJ
8ee-L
8cc#X
(8cc#
8dd)J
=34
8r
16bb-LL
16aaJJ
8bb-L
8gg
8aa-X
8ccnJ
!!LO:LB:g=original
=35
8ff#XL
8ddJ
8b-L
16aL
16gJJ
8dL
8ff#J
=36
16gLL
16ffn
16ee-
16ddJJ
8ee-L
8ccc
8dd
8bbnJ
=37
16ccLL
16bb-X
16aa
16ggJJ
8aaL
16ggL
16ffJJ
8ccL
8eenJ
=38
16fLL
16ee-X
16dd
16ccJJ
8ddL
8bb-
8cc
8aaJ
!!LO:LB:g=original
=39
8b-
4ff
4gg
8b-
=40
16aLL
16cc
16a
16fJJ
16aLL
16cc
16a
16fJJ
16aLL
16cc
16a
16fJJ
=41
8b-
4ff
4gg
8b-
=42
16aLL
16cc
16a
16fJJ
8ccL
8fJ
8r
8e-
=43
8dL
8ff
8e-
8gg
8f
8ddJ
!!LO:LB:g=original
=44
8gL
16ee-L
16ddJJ
8ee-L
8gJ
8fL
16gL
16fJJ
=45
8enL
8gg
8f
8aa
8g
8eenJ
=46
8aL
16ffL
16eenJJ
8ffL
8a
8b-
8ddJ
=47
8g\L
8ee-X
8f
8dd
8d
8ffJ
=48
8e-L
8gg
8d
8ff
8g
8bb-J
=49
8fL
8aa
8a
8ee-
8b-
8ddJ
!!LO:LB:g=original
=50
8e-L
8cc
8d
8b-
8f
8aJ
=51
8r
16b-LL
16aJJ
16b-LL
16cc
16dd
16ee-JJ
16ffLL
16dd
16ee-
16ffJJ
=52
8e-L
8gg
8d
8ff
8g
8bb-J
=53
8fL
8aa
8a
8ee-
8b-
8ddJ
=54
8e-L
8cc
8d
8b-
8f
8aJ
=55
4b-
4r
4r
==
*-
!!!RTL1: G. PH. Telemann: Twelve Fantasias for Flute without Bass TWV 40:2-13
!!!RPN1: D'Arcangelo, Rita
!!!RMM1: Da Vinci Classics
!!!RC#1: DV-C00440
!!!RRD1: 2022
!!!RLC1: Andreaskirche, Berlin, Germany
!!!RDT1: 16 September 2020, 17 September 2020
!!!RT#1: 4
!!!RTL2: The Telemann Files: 12 Fantasies for Solo Flute
!!!RPN2: Choi, Jasmine
!!!RMM2: Austrian Gramophone
!!!RC#2: AG0001
!!!RRD2: February 2015
!!!RLC2: LeFrak Hall, Queens, USA
!!!RDT2: 9 June 2014, 10 June 2014
!!!RT#2: 4
!!!RTL3: Georg Philipp Telemann: Twelve Fantasies for Flute
!!!RPN3: Robertello, Thomas
!!!RMM3: Delos
!!!RC#3: DE3396
!!!RRD3: 1 June 2009
!!!RLC3: Clear Creek Recording, Keene, California
!!!RDT3: Unknown
!!!RT#3: 4
